img/instagram.svg

<svg xmlns="http://www.w3.org/2000/svg" xmlns:xlink="http://www.w3.org/1999/xlink" viewBox="0,0,256,256" width="32px" height="32px"><g fill="#f5deb3" fill-rule="nonzero" stroke="none" stroke-width="1" stroke-linecap="butt" stroke-linejoin="miter" stroke-miterlimit="10" stroke-dasharray="" stroke-dashoffset="0" font-family="none" font-weight="none" font-size="none" text-anchor="none" style="mix-blend-mode: normal"><g transform="scale(8,8)"><path d="M8,4v2h16v-2zM24,6v2h2v-2zM26,8v16h2v-16zM26,24h-2v2h2zM24,26h-16v2h16zM8,26v-2h-2v2zM6,24v-16h-2v16zM6,8h2v-2h-2zM21,9v2h2v-2zM13,11v2h6v-2zM19,13v6h2v-6zM19,19h-6v2h6zM13,19v-6h-2v6z"></path></g></g></svg>

<svg xmlns="http://www.w3.org/2000/svg"  viewBox="0 0 32 32" width="32px" height="32px"><path d="M 8 4 L 8 6 L 24 6 L 24 4 L 8 4 z M 24 6 L 24 8 L 26 8 L 26 6 L 24 6 z M 26 8 L 26 24 L 28 24 L 28 8 L 26 8 z M 26 24 L 24 24 L 24 26 L 26 26 L 26 24 z M 24 26 L 8 26 L 8 28 L 24 28 L 24 26 z M 8 26 L 8 24 L 6 24 L 6 26 L 8 26 z M 6 24 L 6 8 L 4 8 L 4 24 L 6 24 z M 6 8 L 8 8 L 8 6 L 6 6 L 6 8 z M 21 9 L 21 11 L 23 11 L 23 9 L 21 9 z M 13 11 L 13 13 L 19 13 L 19 11 L 13 11 z M 19 13 L 19 19 L 21 19 L 21 13 L 19 13 z M 19 19 L 13 19 L 13 21 L 19 21 L 19 19 z M 13 19 L 13 13 L 11 13 L 11 19 L 13 19 z"/></svg>
